img/vtb.svg

<svg width="164" height="58" viewBox="0 0 164 58" fill="none" xmlns="http://www.w3.org/2000/svg">
<g clip-path="url(#clip0_2_15)">
<path fill-rule="evenodd" clip-rule="evenodd" d="M11.1425 0L8.35511 7.52789H46.9816L49.769 0H11.1425ZM6.96057 11.2901L4.17321 18.8163H42.7997L45.5871 11.2901H6.96057ZM2.78736 22.5803L0 30.1064H38.6265L41.4121 22.5803H2.78736Z" fill="white"/>
<mask id="mask0_2_15" style="mask-type:luminance" maskUnits="userSpaceOnUse" x="57" y="11" width="107" height="47">
<path d="M57.9521 57.5479H163.688V11.4349H57.9521V57.5479Z" fill="white"/>
</mask>
<g mask="url(#mask0_2_15)">
<path fill-rule="evenodd" clip-rule="evenodd" d="M82.1175 32.9751V33.134C83.8828 33.7728 85.569 34.8899 86.4525 35.6072C89.182 37.8414 90.387 40.7929 90.387 44.6223C90.387 50.9268 87.0146 55.4736 81.4747 56.9101C79.7885 57.3884 78.0232 57.549 74.7298 57.549H57.9521V11.4349H72.8048C75.8557 11.4349 77.9424 11.5937 79.7885 12.0719C85.1685 13.5084 88.7008 17.179 88.7008 23.0018C88.7008 26.1139 87.5766 28.7477 85.7306 30.5019C84.9279 31.2995 83.8037 32.2578 82.1175 32.9751ZM67.2649 37.8414V49.9686H73.6883C75.6133 49.9686 77.3803 49.8097 78.6661 48.6124C79.9501 47.415 80.5121 45.9 80.5121 43.905C80.5121 42.3899 80.1099 40.9535 79.3072 39.9167C77.9424 38.2411 76.2562 37.8414 73.3668 37.8414H67.2649ZM67.1841 29.863H72.4025C74.0079 29.863 74.8106 29.863 75.6133 29.6239C77.7826 28.9851 79.1474 27.0721 79.1474 24.4383C79.1474 21.3279 77.7018 19.97 75.6133 19.3329C74.7298 19.0938 73.8481 19.0135 72.0811 19.0135H67.1841V29.863ZM104.356 57.549V19.1723H90.949V11.4349H128.202L125.553 19.1723H113.669V57.549H104.356ZM131.091 57.549V11.4349H161.28L158.631 19.1723H140.325V29.3848H147.792C153.813 29.3848 156.945 30.8213 159.112 32.6557C160.798 34.0922 163.688 37.2828 163.688 43.5873C163.688 49.8097 160.718 53.2395 158.229 54.9954C155.339 56.9887 152.288 57.549 146.106 57.549H131.091ZM140.325 49.8097H147.31C149.959 49.8097 151.565 49.1709 152.689 47.7344C153.251 47.0171 154.054 45.7394 154.054 43.3464C154.054 40.9535 153.251 39.2779 151.645 38.0805C150.683 37.3631 149.397 36.9652 147.23 36.9652H140.325V49.8097Z" fill="white"/>
</g>
</g>
<defs>
<clipPath id="clip0_2_15">
<rect width="164" height="58" fill="white"/>
</clipPath>
</defs>
</svg>

<svg xmlns="http://www.w3.org/2000/svg" width="164" height="58" fill="none"><g clip-path="url(#a)"><path fill="#fff" fill-rule="evenodd" d="M11.143 0 8.354 7.528h38.627L49.769 0H11.142ZM6.96 11.29l-2.788 7.526H42.8l2.787-7.526H6.961ZM2.787 22.58 0 30.106h38.627l2.785-7.526H2.787Z" clip-rule="evenodd"/><mask id="b" width="107" height="47" x="57" y="11" maskUnits="userSpaceOnUse" style="mask-type:luminance"><path fill="#fff" d="M57.952 57.548h105.736V11.435H57.952v46.113Z"/></mask><g mask="url(#b)"><path fill="#fff" fill-rule="evenodd" d="M82.118 32.975v.159c1.765.639 3.451 1.756 4.335 2.473 2.729 2.234 3.934 5.186 3.934 9.015 0 6.305-3.372 10.852-8.912 12.288-1.686.478-3.452.639-6.745.639H57.952V11.435h14.853c3.05 0 5.137.159 6.983.637 5.38 1.436 8.913 5.107 8.913 10.93 0 3.112-1.124 5.746-2.97 7.5-.803.797-1.927 1.756-3.613 2.473Zm-14.853 4.866V49.97h6.423c1.925 0 3.692-.16 4.978-1.357 1.284-1.197 1.846-2.712 1.846-4.707 0-1.515-.402-2.952-1.205-3.988-1.365-1.676-3.05-2.076-5.94-2.076h-6.102Zm-.08-7.978h5.218c1.605 0 2.408 0 3.21-.24 2.17-.638 3.534-2.55 3.534-5.185 0-3.11-1.445-4.468-3.534-5.105-.883-.24-1.765-.32-3.532-.32h-4.897v10.85Zm37.171 27.686V19.172H90.949v-7.737h37.253l-2.649 7.737h-11.884V57.55h-9.313Zm26.735 0V11.435h30.189l-2.649 7.737h-18.306v10.213h7.467c6.021 0 9.153 1.436 11.32 3.27 1.686 1.437 4.576 4.628 4.576 10.932 0 6.223-2.97 9.652-5.459 11.408-2.89 1.994-5.941 2.554-12.123 2.554h-15.015Zm9.234-7.74h6.985c2.649 0 4.255-.638 5.379-2.075.562-.717 1.365-1.995 1.365-4.388 0-2.392-.803-4.068-2.409-5.265-.962-.718-2.248-1.116-4.415-1.116h-6.905V49.81Z" clip-rule="evenodd"/></g></g><defs><clipPath id="a"><path fill="#fff" d="M0 0h164v58H0z"/></clipPath></defs></svg>
